symbols/web/church/materialsymbolsoutlined/church_wght100grad200fill1_24px.svg

<svg xmlns="http://www.w3.org/2000/svg" height="24" width="24"><path d="M2.325 21.675V14.1l4-1.775V9l5-2.525v-2h-2v-1.35h2v-2h1.35v2h2v1.35h-2v2l5 2.525v3.325l4 1.775v7.575H13.9v-3.7q0-.75-.575-1.325T12 16.075q-.75 0-1.325.575t-.575 1.325v3.7ZM12 13.1q.45 0 .775-.325T13.1 12q0-.45-.325-.775T12 10.9q-.45 0-.775.325T10.9 12q0 .45.325.775T12 13.1Z"/></svg>

<svg xmlns="http://www.w3.org/2000/svg" height="24" width="24"><path d="M2.325 21.675V14.1L6.325 12.325V9L11.325 6.475V4.475H9.325V3.125H11.325V1.125H12.675V3.125H14.675V4.475H12.675V6.475L17.675 9V12.325L21.675 14.1V21.675H13.9V17.975Q13.9 17.225 13.325 16.65Q12.75 16.075 12 16.075Q11.25 16.075 10.675 16.65Q10.1 17.225 10.1 17.975V21.675ZM12 13.1Q12.45 13.1 12.775 12.775Q13.1 12.45 13.1 12Q13.1 11.55 12.775 11.225Q12.45 10.9 12 10.9Q11.55 10.9 11.225 11.225Q10.9 11.55 10.9 12Q10.9 12.45 11.225 12.775Q11.55 13.1 12 13.1Z"/></svg>
